X: 6802
T: Charles O'Connor
R: jig
M: 6/8
K: Dmajor
|:A|d2A d2A|BAG FGA|Bcd ecA|dfa a2g|
fef BAB|ede AFA|dcB AFA|dcd d2:|
|:B|A2D FAd|BGB AFA|D2A FDA|GEe c2A|
f2f faf|faf fdB|e2e eae|eae ecA|
dcB AFE|FAd f2e|dcB AFA||dcd d2:|

